X:1
T:Somewhere In Time
T:Somewhere In Time
C:John Barry
Z:All Rights Reserved
L:1/8
M:4/4
K:C
V:1 treble nm="Piano" snm="Pno."
%%MIDI program 0
V:1
 z2 C2 D2 E2 |"C" B8- |"Am" B2 c2 B3 G |"F" D3 E E4- |"Dm" E4 (3A,2 B,2 C2 |"Dm" D3 E D3 E | %6
w: Some- where in|time,|_ we met on|time- less hills,|* and in the|ev- 'ning mist we|
"G7" D3 A B,3 B |"C" G8- | G4 (3E2 F2 G2 |"F" A8- |"Dm" A2 d2 c3 B |"Am" c4 G4- |"F" G2 c2 B3 A | %13
w: kissed and time stood|still.|_ Be- fore the|dawn|_ we found for-|ev- er;|* mo- ments are|
"E" B6 ^G2 |"B7" B3 ^F (3F2 ^G2 A2 |"G7" B8- | B4 (3C2 D2 E2 |"C" B8- |"Am" B2 c2 B3 G | %19
w: time- less|when I feel your car-|ess.|_ Love nev- er|goes,|_ once it has|
"F" D3 E E4- |"Dm" E4 (3A,2 B,2 C2 |"Dm" D3 E D3 E |"G7" D3 A B,3 B |"C" G8- | G4 (3E2 F2 G2 | %25
w: touched your heart|_ just like a|scent of wine that's|left as two lips|part.|_ A taste of|
"F" A8- |"Dm" A2 d2 c3 B |"Am" c4 G4- |"F" G2 c2 B3 A |"E" B6 ^G2 |"B7" B3 ^F (3F2 ^G2 A2 | %31
w: love|_ will ling- er|af- ter|_ I find the|mean- ing|now in all that I|
"G7" B8- | B z e2 d3 G |"Am" e8- |"F" e2 E2 F3 e |"Dm" d8- |"G7" d4 E3 d |"Am" c3 A c3 A | %38
w: see.|_ You'll al- ways|be|_ in- side of|me.|_ And I|know when love is|
"Dm" c3 D (3d2 B2 A2 |"E7" B8- | B4 (3C2 D2 E2 |"C" B8- |"Am" B2 c2 B3 G |"F" d4 e e3- | %44
w: true It's al- ways with|you.|_ Some- where in|time,|_ I came to|re- a- lize|
"Dm" e2 f2"G7" f3 e |"C" g8 | z2"Bb13b5" G4- [EG]2 |"C6/D" G8- | G2{/c} c'4 z2 |] %49
w: _ love ne- ver|goes.||||

